X:1
T:Polka Tramblant
C:traditionell
%%textfont Helvetica-Narrow 10pt
%%begintext align
S:Holzmeister, 1883, Oberoesterreichisches Volkslied-Archiv MII L9
%%endtext
Z:abc transcription Simon Wascher
M:2/4
L:1/8
K:D
AF Ad | dc e/d/c | Ac/e/ gc | ed f/e/d |
AF Ad | dc e/d/c | Ac/e/ gc | dd dz :|
|:\
dB d/c/B/z/ | Ad/e/ f/e/d | c/d/e/z/ e/f/g/z/ | g/f/f/g/ f/e/d/z/ |
dB d/c/B/z/ | Ad/e/f/e/d | c/d/e/f/ g/f/g/c/ | dd d2 :|
K:G
|:\
d2 gB | dG B2 | A/G/F/z/ c/B/A/z/ | e/d/e/z/ d/c/B/z/ |
d2 gB | dG B2 | A/G/F/z/ d>F | GG G2 :|
%%wordsfont Times-Italic 11pt
W:aus Simon Waschers TradArchiv
